packages/foundations/assets/icons/functional/images/transportation/pedestrian_32.svg

<svg width="32" height="32" viewBox="0 0 32 32" fill="none" xmlns="http://www.w3.org/2000/svg">
<g clip-path="url(#clip0_187_916)">
<path fill-rule="evenodd" clip-rule="evenodd" d="M9.34839 28.9864C9.34839 28.8597 9.38011 28.733 9.44336 28.5746L12.6629 21.3348C12.8213 20.9548 13.2014 20.7331 13.5815 20.7331C14.1832 20.7331 14.595 21.2399 14.595 21.7467C14.595 21.8734 14.5633 22.0001 14.5 22.1268L11.2806 29.3665C11.1221 29.7466 10.7421 30 10.362 30C9.7602 30 9.34839 29.5249 9.34839 28.9864ZM9.57006 15.81L10.0452 12.6743C10.1086 12.3258 10.3302 12.0408 10.6787 11.9141L14.793 9.79864C15.1413 9.67195 15.4264 9.6086 15.6798 9.6086C16.44 9.6086 16.8201 10.1471 16.7884 10.9073L16.095 18.0905L19.7058 21.7014C19.8325 21.8281 19.9276 21.9864 19.9909 22.1765L21.6063 28.763C21.7647 29.3965 21.2896 30.03 20.6244 29.9983C20.181 29.9983 19.7693 29.7133 19.6742 29.2381L18.0905 22.905L14.4163 19.2625C14.1946 19.0407 14.0044 18.6606 14.0679 18.2172L14.698 12.0158L11.9457 13.5611L11.534 16.1267C11.4705 16.6019 11.0588 16.982 10.552 16.982C9.95015 16.982 9.47509 16.4117 9.57006 15.81ZM16.4027 2C18.059 2 19.4027 3.3437 19.4027 5.00008C19.4027 6.62504 18.059 8.00006 16.4027 8.00006C14.7464 8.00006 13.4027 6.65636 13.4027 5.00008C13.4027 3.3437 14.7464 2 16.4027 2ZM16.4298 4.02715C15.8673 4.02715 15.4298 4.46471 15.4298 5.02715C15.4298 5.55846 15.8673 6.02713 16.4298 6.02713C16.9611 6.02713 17.4298 5.55846 17.4298 5.02715C17.4298 4.46471 16.9611 4.02715 16.4298 4.02715ZM17.4651 12.841C17.4651 12.3026 17.9085 11.8591 18.447 11.8591C18.7321 11.8591 18.9855 11.9542 19.1755 12.1442L20.1176 13.086L22.113 14.0679C22.4615 14.2579 22.6516 14.6063 22.6516 14.9864C22.6516 15.5248 22.2081 15.9684 21.6697 15.9684C21.5113 15.9684 21.3529 15.9367 21.1946 15.8733L19.104 14.7964C19.0091 14.7647 18.914 14.7014 18.8507 14.638L17.7818 13.5696C17.5918 13.3795 17.4651 13.1261 17.4651 12.841Z" fill="#1A1C1F"/>
</g>
<defs>
<clipPath id="clip0_187_916">
<rect width="32" height="32" fill="white"/>
</clipPath>
</defs>
</svg>

<svg xmlns="http://www.w3.org/2000/svg" width="32" height="32" fill="none"><g clip-path="url(#a)"><path fill="#1A1C1F" fill-rule="evenodd" d="M9.348 28.986c0-.126.032-.253.095-.411l3.22-7.24a1 1 0 0 1 .918-.602 1.02 1.02 0 0 1 1.014 1.014.84.84 0 0 1-.095.38l-3.22 7.24c-.158.38-.538.633-.918.633a1 1 0 0 1-1.014-1.014M9.57 15.81l.475-3.136a.97.97 0 0 1 .634-.76L14.793 9.8c.348-.127.633-.19.887-.19.76 0 1.14.538 1.108 1.298l-.693 7.183 3.61 3.611q.192.19.286.476l1.615 6.586c.159.633-.316 1.267-.982 1.235-.443 0-.855-.285-.95-.76l-1.584-6.333-3.674-3.643a1.25 1.25 0 0 1-.348-1.045l.63-6.201-2.752 1.545-.412 2.566a.99.99 0 0 1-.982.855c-.602 0-1.077-.57-.982-1.172M16.403 2a3 3 0 0 1 3 3c0 1.625-1.344 3-3 3a3 3 0 0 1 0-6m.027 2.027c-.563 0-1 .438-1 1 0 .531.437 1 1 1 .531 0 1-.469 1-1 0-.562-.469-1-1-1m1.035 8.814c0-.538.444-.982.982-.982.285 0 .538.095.729.285l.942.942 1.995.982c.349.19.539.538.539.918a.987.987 0 0 1-.982.982 1.3 1.3 0 0 1-.475-.095l-2.091-1.077a.7.7 0 0 1-.253-.158l-1.07-1.068a1.03 1.03 0 0 1-.316-.729" clip-rule="evenodd"/></g><defs><clipPath id="a"><path fill="#fff" d="M0 0h32v32H0z"/></clipPath></defs></svg>
